polaris-icons/icons/new-icons/SidebarRightMajor.svg

<svg width="20" height="20" viewBox="0 0 20 20" fill="none" xmlns="http://www.w3.org/2000/svg">
<path fill-rule="evenodd" clip-rule="evenodd" d="M13.75 16.5C12.7835 16.5 12 15.7165 12 14.75L12 5.25C12 4.2835 12.7835 3.5 13.75 3.5H15.25C16.2165 3.5 17 4.2835 17 5.25L17 14.75C17 15.7165 16.2165 16.5 15.25 16.5H13.75ZM13.5 14.75C13.5 14.8881 13.6119 15 13.75 15H15.25C15.3881 15 15.5 14.8881 15.5 14.75L15.5 5.25C15.5 5.11193 15.3881 5 15.25 5H13.75C13.6119 5 13.5 5.11193 13.5 5.25L13.5 14.75Z" fill="#4A4A4A"/>
<path d="M5.25 16.5C4.2835 16.5 3.5 15.7165 3.5 14.75V14.25C3.5 13.8358 3.83579 13.5 4.25 13.5C4.66421 13.5 5 13.8358 5 14.25V14.75C5 14.8881 5.11193 15 5.25 15H5.75C6.16421 15 6.5 15.3358 6.5 15.75C6.5 16.1642 6.16421 16.5 5.75 16.5H5.25Z" fill="#4A4A4A"/>
<path d="M8.75 16.5C9.7165 16.5 10.5 15.7165 10.5 14.75V14.25C10.5 13.8358 10.1642 13.5 9.75 13.5C9.33579 13.5 9 13.8358 9 14.25V14.75C9 14.8881 8.88807 15 8.75 15H8.25C7.83579 15 7.5 15.3358 7.5 15.75C7.5 16.1642 7.83579 16.5 8.25 16.5H8.75Z" fill="#4A4A4A"/>
<path d="M3.5 5.25C3.5 4.2835 4.2835 3.5 5.25 3.5H5.75C6.16421 3.5 6.5 3.83579 6.5 4.25C6.5 4.66421 6.16421 5 5.75 5H5.25C5.11193 5 5 5.11193 5 5.25V5.75C5 6.16421 4.66421 6.5 4.25 6.5C3.83579 6.5 3.5 6.16421 3.5 5.75V5.25Z" fill="#4A4A4A"/>
<path d="M10.5 5.25C10.5 4.2835 9.7165 3.5 8.75 3.5H8.25C7.83579 3.5 7.5 3.83579 7.5 4.25C7.5 4.66421 7.83579 5 8.25 5H8.75C8.88807 5 9 5.11193 9 5.25V5.75C9 6.16421 9.33579 6.5 9.75 6.5C10.1642 6.5 10.5 6.16421 10.5 5.75V5.25Z" fill="#4A4A4A"/>
<path d="M4.25 8.25C4.66421 8.25 5 8.58579 5 9V11C5 11.4142 4.66421 11.75 4.25 11.75C3.83579 11.75 3.5 11.4142 3.5 11V9C3.5 8.58579 3.83579 8.25 4.25 8.25Z" fill="#4A4A4A"/>
<path d="M10.5 9C10.5 8.58579 10.1642 8.25 9.75 8.25C9.33579 8.25 9 8.58579 9 9V11C9 11.4142 9.33579 11.75 9.75 11.75C10.1642 11.75 10.5 11.4142 10.5 11V9Z" fill="#4A4A4A"/>
</svg>

<svg viewBox="0 0 20 20" xmlns="http://www.w3.org/2000/svg"><path fill-rule="evenodd" d="M13.75 16.5a1.75 1.75 0 0 1-1.75-1.75v-9.5c0-.966.784-1.75 1.75-1.75h1.5c.966 0 1.75.784 1.75 1.75v9.5a1.75 1.75 0 0 1-1.75 1.75h-1.5Zm-.25-1.75c0 .138.112.25.25.25h1.5a.25.25 0 0 0 .25-.25v-9.5a.25.25 0 0 0-.25-.25h-1.5a.25.25 0 0 0-.25.25v9.5Z" fill="#5C5F62"/><path d="M5.25 16.5a1.75 1.75 0 0 1-1.75-1.75v-.5a.75.75 0 0 1 1.5 0v.5c0 .138.112.25.25.25h.5a.75.75 0 0 1 0 1.5h-.5Z" fill="#5C5F62"/><path d="M8.75 16.5a1.75 1.75 0 0 0 1.75-1.75v-.5a.75.75 0 0 0-1.5 0v.5a.25.25 0 0 1-.25.25h-.5a.75.75 0 0 0 0 1.5h.5Z" fill="#5C5F62"/><path d="M3.5 5.25c0-.966.784-1.75 1.75-1.75h.5a.75.75 0 0 1 0 1.5h-.5a.25.25 0 0 0-.25.25v.5a.75.75 0 0 1-1.5 0v-.5Z" fill="#5C5F62"/><path d="M10.5 5.25a1.75 1.75 0 0 0-1.75-1.75h-.5a.75.75 0 0 0 0 1.5h.5a.25.25 0 0 1 .25.25v.5a.75.75 0 0 0 1.5 0v-.5Z" fill="#5C5F62"/><path d="M4.25 8.25a.75.75 0 0 1 .75.75v2a.75.75 0 0 1-1.5 0v-2a.75.75 0 0 1 .75-.75Z" fill="#5C5F62"/><path d="M10.5 9a.75.75 0 0 0-1.5 0v2a.75.75 0 0 0 1.5 0v-2Z" fill="#5C5F62"/></svg>
